X: 34726
T: Road To Glountane, The
R: barndance
M: 4/4
K: Dmajor
|:E2 E>F A2- A>B|c<ee>c B>A F2|
(3faf e>c A>Bc>=d|1 e>cB>A F>AA>F:|2 e>c (3BcB A2- A>f||
|:e2 e>f a2 a>f|e>cB>A F<A A2|
c>BB>A c2 B>A|1 c>AB>A F>AA>f:|2 c>eB>c A2 A2||
|:E>DE>F A>GA>B|c2 e>c B>A (3FGA|
f2 e>c A2 (3Bcd|1 e>cB>A F2 (3AGF:|2 e>cB<G A2- A>f||

